!!!COM: Corelli, Arcangelo
!!!OTL: Sonate a tre [in Bb]
!!!XEN: Trio Sonata Opus 1, No. 5
!!!OPS: Opus 1
!!!ONM: No. 5
!!!OMV: Movement 4.
!!!YEC: Copyright 1994, Center for Computer Assisted Research in the Humanities
!!!YEM: Rights to all derivative electronic formats reserved.
!!!YEM: Refer to licensing agreement for further details.
!! For the following instrumentation: Violino I & II, Violone/Archlute,
!!    and Organo.
!! Allegro.
**kern	**kern	**kern	**kern
*ICklav	*ICstr	*ICstr	*ICstr
*Iorgan	*Icello	*Ivioln	*Ivioln
*	*Iarchl	*	*
!Organo	!Violone	!Violin 2	!Violin 1
!	! or	!	!
!	!Archlute	!	!
*>[A,A]	*>[A,A]	*>[A,A]	*>[A,A]
*>A	*>A	*>A	*>A
*clefF4	*clefF4	*clefG2	*clefG2
*k[b-]	*k[b-]	*k[b-]	*k[b-]
*B-:	*B-:	*B-:	*B-:
*M6/8	*M6/8	*M6/8	*M6/8
*MM108	*MM108	*MM108	*MM108
=1-	=1-	=1-	=1-
4.BB-/	2.r	2.r	8b-\L
.	.	.	8dd\
.	.	.	8b-\J
4.r	.	.	8ff\L
.	.	.	8aa\
.	.	.	8ff\J
=2	=2	=2	=2
4.BB-/	2.r	2.r	8bb-\L
.	.	.	8ff\
.	.	.	8gg\J
4.r	.	.	8dd\L
.	.	.	8ee-\
.	.	.	8ff\J
=3	=3	=3	=3
4.BB-/	2.r	2.r	4b-\
.	.	.	8bb-\
4.r	.	.	4aa\
.	.	.	8gg\
=4	=4	=4	=4
4.F\	2.r	8f/L	4.ff\
.	.	8a/	.
.	.	8f/J	.
4.r	.	8b-\L	4.dd\
.	.	8dd\	.
.	.	8b-\J	.
=5	=5	=5	=5
4.F\	2.r	8ff\L	4a/
.	.	8cc\	.
.	.	8dd\J	8ff\
4.r	.	8a\L	4ff\
.	.	8b-\	.
.	.	8cc\J	8ee\
=6	=6	=6	=6
4.F\	2.r	4f/	4ff\
.	.	8ff\	8dd\
4.r	.	8ee-\L	8cc\L
.	.	8dd\	8b-\
.	.	8cc\J	8a\J
=7	=7	=7	=7
8BB-/L	8BB-/L	4.dd\	4.b-\
8D/	8D/	.	.
8BB-/J	8BB-/J	.	.
8F\L	8F\L	4.cc\	4.a/
8A\	8A\	.	.
8F\J	8F\J	.	.
=8	=8	=8	=8
8B-\L	8B-\L	(8b-\L	4.dd\
8F\	8F\	8a\)	.
8G\J	8G\J	8b-\J	.
8D\L	8D\L	4b-\	4.ff\
8E-\	8E-\	.	.
8F\J	8F\J	8a/	.
=9	=9	=9	=9
4.BB-/	4.BB-/	8b-\L	4.dd\
.	.	8dd\	.
.	.	8b-\J	.
4.D\	4.D\	4.ff\	8b-\L
.	.	.	8dd\
.	.	.	8b-\J
=10	=10	=10	=10
4.BB-/	4.BB-/	(8dd\L	4.ff\
.	.	8ee-\)	.
.	.	8dd\J	.
4.AA/	4.AA/	(8cc\L	8ff#\L
.	.	8dd\)	8aa\
.	.	8cc\J	8ff#\J
=11	=11	=11	=11
4.GG/	4.GG/	4.b-\	4.gg\
4.G\	8G\L	(8b-\L	4.ee-\
.	8A\	8cc\)	.
.	8G\J	8b-\J	.
=12	=12	=12	=12
4.F\	8F\L	(8a/L	4.dd\
.	8G\	8b-/)	.
.	8F\J	8a/J	.
4.E-\	8E-\L	(8g/L	4.cc\
.	8F\	8a/)	.
.	8E-\J	8g/J	.
=13	=13	=13	=13
4.D\	4.D\	4.f#/	4.dd\
4.BB/	4.BB/	[4.dd\	8dd\L
.	.	.	8gg\
.	.	.	8dd\J
=14	=14	=14	=14
4.C/	4.C/	8dd\L]	4.ee\
.	.	8cc\	.
.	.	8b-\J	.
4.AA/	4.AA/	[4.cc\	8ee\L
.	.	.	8aa\
.	.	.	8ee\J
=15	=15	=15	=15
4.D\	4.D\	8cc\L]	4.ff#\
.	.	(8b-\	.
.	.	8a\J)	.
4.GG/	4.GG/	(8b-\L	8gg\L
.	.	8cc\)	8aa\
.	.	8dd\J	8bb-\J
=16	=16	=16	=16
4.C/	4.C/	4cc\	8ee\L
.	.	.	8ff#\
.	.	8b-\	8gg\J
4.D\	4.D\	4.a/	4gg\
.	.	.	8ff#\
=17	=17	=17	=17
4.GG/	4.GG/	4.g/	4.gg\
4.G\	4.G\	[4.ee-\	4.r
=18	=18	=18	=18
4.A\	4.A\	8ee-\L]	[4.ff\
.	.	(8dd\	.
.	.	8cc\J)	.
4.B-\	4.B-\	[4.dd\	8ff\L]
.	.	.	8ee-\
.	.	.	8dd\J
=19	=19	=19	=19
4.G\	4.G\	8dd\L]	[4.ee-\
.	.	(8cc\	.
.	.	8b-\J)	.
4.A\	4.A\	[4.cc\	8ee-\L]
.	.	.	8dd\
.	.	.	8cc\J
=20	=20	=20	=20
4.F\	4.F\	8cc\L]	[4.dd\
.	.	(8b-\	.
.	.	8a\J)	.
4.G\	4.G\	[4.b-\	8dd\L]
.	.	.	8cc\
.	.	.	8b-\J
=21	=21	=21	=21
4.E-\	4.E-\	4.b-\]	[4.cc\
4.F\	4.F\	4.a/	4.cc\]
=22	=22	=22	=22
8BB-/L	8BB-/L	4.b-\	4.dd\
8D/	8D/	.	.
8BB-/J	8BB-/J	.	.
8F\L	8F\L	4.a/	4.cc\
8A\	8A\	.	.
8F\J	8F\J	.	.
=23	=23	=23	=23
4.B-\	4.B-\	8b-\L	4.dd\
.	.	8dd\	.
.	.	8b-\J	.
4.A\	4.A\	8ff\L	4.r
.	.	8aa\	.
.	.	8ff\J	.
=24	=24	=24	=24
4.G\	4.G\	4.bb-\	8b-\L
.	.	.	8dd\
.	.	.	8b-\J
4.F\	4.F\	4.aa\	8ff\L
.	.	.	8aa\
.	.	.	8ff\J
=25	=25	=25	=25
4.E-\	4.E-\	[4.gg\	4.bb-\
4.C/	4.C/	8gg\L]	[4.aa\
.	.	(8ff\	.
.	.	8ee\J)	.
=26	=26	=26	=26
4.D\	4.D\	[4.ff\	8aa\L]
.	.	.	8gg\
.	.	.	8ff\J
4.BB-/	4.BB-/	4.ff\]	[4.gg\
=27	=27	=27	=27
4.C/	4.C/	4.ee\	4.gg\]
4.FF/	4.FF/	4.ff\	8f/L
.	.	.	8a/
.	.	.	8f/J
=28	=28	=28	=28
4.r	4.r	4.r	8cc\L
.	.	.	8ee\
.	.	.	8cc\J
8F\L	8F\L	4.aa\	4.ff\
8A\	8A\	.	.
8F\J	8F\J	.	.
=29	=29	=29	=29
8c\L	8c\L	4.gg\	4ee\
8e\	8e\	.	.
8c\J	8c\J	.	8r
[4.f\	[4.f\	4.aa\	8ff\L
.	.	.	8cc\
.	.	.	8dd\J
=30	=30	=30	=30
4.f\]	4.f\]	4.r	8a\L
.	.	.	8b-\
.	.	.	8cc\J
8f\L	8f\L	(8aa\L	4.f/
8c\	8c\	8gg\)	.
8d\J	8d\J	8ff\J	.
=31	=31	=31	=31
8A\L	8A\L	4ff\	4.cc\
8B-\	8B-\	.	.
8c\J	8c\J	8ee\	.
4F\	4F\	4.ff\	4a/
8F\	8F\	.	8ff\
=32	=32	=32	=32
4G\	4G\	4.r	8ee-\L
.	.	.	8dd\
8A\	8A\	.	8cc\J
4.B-\	4.B-\	8b-\L	4.dd\
.	.	8dd\	.
.	.	8b-\J	.
=33	=33	=33	=33
4.r	4.r	8ff\L	4.r
.	.	8aa\	.
.	.	8ff\J	.
4.BB-/	4.BB-/	4.bb-\	8b-\L
.	.	.	8dd\
.	.	.	8b-\J
=34	=34	=34	=34
4.r	4.r	4aa\	8ff\L
.	.	.	8aa\
.	.	8r	8ff\J
4.BB-/	4.BB-/	8bb-\L	4.bb-\
.	.	8ff\	.
.	.	8gg\J	.
=35	=35	=35	=35
4.r	4.r	8dd\L	4.aa\
.	.	8ee-\	.
.	.	8ff\J	.
4.BB-/	4.BB-/	4.b-\	8bb-\L
.	.	.	8ff\
.	.	.	8gg\J
=36	=36	=36	=36
4.r	4.r	4.f/	8dd\L
.	.	.	8ee-\
.	.	.	8ff\J
4.BB-/	4.BB-/	4.d/	4.b-\
=37	=37	=37	=37
4.G\	4.G\	[4.bb-\	4.r
4.E-\	4.E-\	8bb-\L]	[4.ccc\
.	.	8aa\	.
.	.	8gg\J	.
=38	=38	=38	=38
4.F\	4.F\	[4.aa\	8ccc\L]
.	.	.	8bb-\
.	.	.	8aa\J
4.D\	4.D\	8aa\L]	[4.bb-\
.	.	8gg\	.
.	.	8ff#\J	.
=39	=39	=39	=39
4.E-\	4.E-\	[4.gg\	8bb-\L]
.	.	.	8aa\
.	.	.	8gg\J
4.C/	4.C/	8gg\L]	[4.aa\
.	.	8ff#\	.
.	.	8ee\J	.
=40	=40	=40	=40
4.D\	4.D\	4.ff#\	8aa\L]
.	.	.	8bb-\
.	.	.	8aa\J
4.GG/	4.GG/	4.gg\	4.gg\
=41	=41	=41	=41
4.G\	4.G\	4.r	[4.ee-\
[4.F\	[4.F\	[4.a/	8ee-\L]
.	.	.	8dd\
.	.	.	8cc\J
=42	=42	=42	=42
8F\L]	8F\L]	8a/L]	[4.dd\
8E-\	8E-\	8g/	.
8D\J	8D\J	8f#/J	.
[4.E-\	[4.E-\	[4.g/	8dd\L]
.	.	.	8cc\
.	.	.	8b-\J
=43	=43	=43	=43
8E-\L]	8E-\L]	8g/L]	4.cc\
8F\	8F\	8a/	.
8E-\J	8E-\J	8g/J	.
4.D\	4.D\	4.f#/	4.dd\
=44	=44	=44	=44
4.BB/	4.BB/	8d/L	[4.dd\
.	.	8g/	.
.	.	8d/J	.
4.C/	4.C/	4.e/	8dd\L]
.	.	.	8cc\
.	.	.	8b\J
=45	=45	=45	=45
4.AA/	4.AA/	8e/L	[4.cc\
.	.	8a/	.
.	.	8e/J	.
4.D\	4.D\	4.f#/	8cc\L]
.	.	.	8b-\
.	.	.	8a\J
=46	=46	=46	=46
4.GG/	4.GG/	4g/	8b-\L
.	.	.	8cc\
.	.	8f/	8dd\J
4.C/	4.C/	(8e/L	4cc\
.	.	8f#/)	.
.	.	8g/J	8b-\
=47	=47	=47	=47
4.D\	4.D\	4g/	4.a/
.	.	8f#/	.
[4.GG/	[4.GG/	4.g/	8b-\L
.	.	.	8cc\
.	.	.	8dd\J
=48	=48	=48	=48
4.GG/]	4.GG/]	8g/L	[4.ee-\
.	.	8b-/	.
.	.	8g/J	.
[4.AA/	[4.AA/	4.cc\	8ee-\L]
.	.	.	8dd\
.	.	.	8cc\J
=49	=49	=49	=49
4.AA/]	4.AA/]	8a\L	[4.ff\
.	.	8cc\	.
.	.	8a\J	.
[4.BB-/	[4.BB-/	4.dd\	8ff\L]
.	.	.	8ee-\
.	.	.	8dd\J
=50	=50	=50	=50
4.BB-/]	4.BB-/]	8b-\L	[4.gg\
.	.	8dd\	.
.	.	8b-\J	.
[4.C/	[4.C/	4.ee-\	8gg\L]
.	.	.	8ff\
.	.	.	8ee-\J
=51	=51	=51	=51
4.C/]	4.C/]	8cc\L	[4.aa\
.	.	8ee-\	.
.	.	8cc\J	.
4.D\	4.D\	4ff\	8aa\L]
.	.	.	8gg\
.	.	8r	8ff\J
=52	=52	=52	=52
4.G\	4.G\	8b-\L	4.bb-\
.	.	8dd\	.
.	.	8b-\J	.
4.F\	4.F\	8ff\L	4.aa\
.	.	8aa\	.
.	.	8ff\J	.
=53	=53	=53	=53
4.E-\	4.E-\	4.bb-\	[4.gg\
[4.F\	[4.F\	[4.aa\	8gg\L]
.	.	.	8ff\
.	.	.	8ee-\J
=54	=54	=54	=54
2.F_\	2.F_\	8aa\L]	[4.ff\
.	.	8gg\	.
.	.	8ff\J	.
.	.	[4.gg\	8ff\L]
.	.	.	8ee-\
.	.	.	8dd\J
=55	=55	=55	=55
2.F_\	2.F_\	8gg\L]	[4.ee-\
.	.	8ff\	.
.	.	8ee-\J	.
.	.	[4.ff\	8ee-\L]
.	.	.	8dd\
.	.	.	8cc\J
=56	=56	=56	=56
2.F_\	2.F_\	8ff\L]	[4.dd\
.	.	8ee-\	.
.	.	8dd\J	.
.	.	[4.ee-\	8dd\L]
.	.	.	8cc\
.	.	.	8b-\J
=57	=57	=57	=57
2.F\]	2.F\]	8ee-\L]	[4.cc\
.	.	8dd\	.
.	.	8cc\J	.
.	.	4.dd\	8cc\L]
.	.	.	8b-\
.	.	.	8a\J
=58	=58	=58	=58
!! Adagio.
**MM77	*MM77	*MM77	*MM77
4.E\	4.E\	4.dd-\	[4.b-\
[4.F\	[4.F\	[4.cc\	4.b-\]
=59	=59	=59	=59
4.F\]	4.F\]	4.cc\]	4.a/
4.BB-/	4.BB-/	4.b-\	4.b-\
==	==	==	==
*-	*-	*-	*-
!!!CDT: 1653/2/17/-1713/1/8
!!!OCY: Italia
!!!ODE: Queen Christina Alexandra of Sweden
!!!ODT: 1681//
!!!OPC: Roma; Rome
!!!AGN: trio sonata
!!!AST: baroque, chamber
!!!AMT: compound duple
!!!YOR1: J. Joachim & F. Chrysander (eds.) Les Oeuvre de Arcangelo Corelli
!!!YOR2: London: Augener & Co. 1871
!!!YOY: 1871
!!!AIN: archl cello organ violn
!!!EEV: 1.1
!!!RDT: 1993 August 23
!!!YER: 1994 December 14
!!!EMD: 1996 July 9
!!!YEN: United States of America
!!!EFL: 4/4
!!!ENC: Frances Bennion & Steven Rasmussen
!!!EED: W.B. Hewlett
!!!VTS: 44554060
